resources/images/AnchorIcon.svg

<svg xmlns="http://www.w3.org/2000/svg" width="9" height="9" shape-rendering="geometricPrecision" image-rendering="optimizeQuality" fill-rule="evenodd" xmlns:v="https://vecta.io/nano"><path d="M4.5.5c1.33333.66667 1.33333.66667 0 0zm0 1c-.16212 2.0273.00454 4.0273.5 6 1.0391-1.2101 2.20577-2.2101 3.5-3v2c-1 .33333-1.66667 1-2 2h-5c-.33333-1-1-1.66667-2-2v-2c1.294229.7899 2.4609 1.7899 3.5 3 .19088-2.20779.69088-4.20779 1.5-6z"/></svg>

<?xml version="1.0" encoding="UTF-8"?>
<!DOCTYPE svg PUBLIC "-//W3C//DTD SVG 1.1//EN" "http://www.w3.org/Graphics/SVG/1.1/DTD/svg11.dtd">
<svg xmlns="http://www.w3.org/2000/svg" version="1.1" width="9px" height="9px" style="shape-rendering:geometricPrecision; text-rendering:geometricPrecision; image-rendering:optimizeQuality; fill-rule:evenodd; clip-rule:evenodd" xmlns:xlink="http://www.w3.org/1999/xlink">
<g><path style="opacity:1" fill="#000000" d="M 4.5,0.5 C 5.83333,1.16667 5.83333,1.16667 4.5,0.5 Z"/></g>
<g><path style="opacity:1" fill="#000000" d="M 4.5,1.5 C 4.33788,3.5273 4.50454,5.5273 5,7.5C 6.0391,6.2899 7.20577,5.2899 8.5,4.5C 8.5,5.16667 8.5,5.83333 8.5,6.5C 7.5,6.83333 6.83333,7.5 6.5,8.5C 4.83333,8.5 3.16667,8.5 1.5,8.5C 1.16667,7.5 0.5,6.83333 -0.5,6.5C -0.5,5.83333 -0.5,5.16667 -0.5,4.5C 0.794229,5.2899 1.9609,6.2899 3,7.5C 3.19088,5.29221 3.69088,3.29221 4.5,1.5 Z"/></g>
</svg>
